src/assets/svg/icons/fa/nuevos/classic/thin/draw-square classic thin.svg

<svg xmlns="http://www.w3.org/2000/svg" viewBox="0 0 448 512"><path d="M95.34 440C91.53 462.7 71.78 480 48 480C21.49 480 0 458.5 0 432C0 408.2 17.3 388.5 40 384.7V127.3C17.3 123.5 0 103.8 0 80C0 53.49 21.49 32 48 32C71.78 32 91.53 49.3 95.34 72H352.7C356.5 49.3 376.2 32 400 32C426.5 32 448 53.49 448 80C448 103.8 430.7 123.5 408 127.3V384.7C430.7 388.5 448 408.2 448 432C448 458.5 426.5 480 400 480C376.2 480 356.5 462.7 352.7 440H95.34zM48 112C65.67 112 80 97.67 80 80C80 62.33 65.67 48 48 48C30.33 48 16 62.33 16 80C16 97.67 30.33 112 48 112zM56 384.7C76.1 388 91.96 403.9 95.34 424H352.7C356 403.9 371.9 388 392 384.7V127.3C371.9 123.1 356 108.1 352.7 88H95.34C91.96 108.1 76.1 123.1 56 127.3V384.7zM48 400C30.33 400 16 414.3 16 432C16 449.7 30.33 464 48 464C65.67 464 80 449.7 80 432C80 414.3 65.67 400 48 400zM400 400C382.3 400 368 414.3 368 432C368 449.7 382.3 464 400 464C417.7 464 432 449.7 432 432C432 414.3 417.7 400 400 400zM400 48C382.3 48 368 62.33 368 80C368 97.67 382.3 112 400 112C417.7 112 432 97.67 432 80C432 62.33 417.7 48 400 48z"/></svg>

<svg xmlns="http://www.w3.org/2000/svg" viewBox="0 0 448 512"><!--! Font Awesome Pro 6.4.0 by @fontawesome - https://fontawesome.com License - https://fontawesome.com/license (Commercial License) Copyright 2023 Fonticons, Inc. --><path d="M48 112a32 32 0 1 0 0-64 32 32 0 1 0 0 64zm8 15.3V384.7C76.1 388 92 403.9 95.3 424H352.7c3.4-20.1 19.2-36 39.3-39.3V127.3c-20.1-3.4-36-19.2-39.3-39.3H95.3C92 108.1 76.1 124 56 127.3zM95.3 440c-3.8 22.7-23.6 40-47.3 40c-26.5 0-48-21.5-48-48c0-23.8 17.3-43.5 40-47.3V127.3C17.3 123.5 0 103.8 0 80C0 53.5 21.5 32 48 32c23.8 0 43.5 17.3 47.3 40H352.7c3.8-22.7 23.6-40 47.3-40c26.5 0 48 21.5 48 48c0 23.8-17.3 43.5-40 47.3V384.7c22.7 3.8 40 23.6 40 47.3c0 26.5-21.5 48-48 48c-23.8 0-43.5-17.3-47.3-40H95.3zM80 432a32 32 0 1 0 -64 0 32 32 0 1 0 64 0zm352 0a32 32 0 1 0 -64 0 32 32 0 1 0 64 0zm0-352a32 32 0 1 0 -64 0 32 32 0 1 0 64 0z"/></svg>
